assets/images/illustration-top.svg

<?xml version="1.0" encoding="UTF-8" standalone="no"?>
<svg width="384px" height="104px" viewBox="0 0 384 104" version="1.1" xmlns="http://www.w3.org/2000/svg" xmlns:xlink="http://www.w3.org/1999/xlink" xmlns:sketch="http://www.bohemiancoding.com/sketch/ns">
    <!-- Generator: Sketch 3.5.1 (25234) - http://www.bohemiancoding.com/sketch -->
    <title>Untitled 2</title>
    <desc>Created with Sketch.</desc>
    <defs></defs>
    <g id="Page-1" stroke="none" stroke-width="1" fill="none" fill-rule="evenodd" sketch:type="MSPage">
        <path d="M210.84375,91.9609375 C211.690108,94.1093857 211.543625,96.0787671 210.404297,97.8691406 C209.264968,99.6595142 207.523449,100.619791 205.179688,100.75 L130.570312,100.75 C128.226551,100.619791 126.485032,99.6595142 125.345703,97.8691406 C124.206375,96.0787671 124.059892,94.1093857 124.90625,91.9609375 L146,44.5 L146,19.5 L139.75,19.5 L139.75,13.25 L196,13.25 L196,19.5 L189.75,19.5 L189.75,44.5 L210.84375,91.9609375 L210.84375,91.9609375 Z M191.3125,63.25 L183.5,44.5 L183.5,19.5 L152.25,19.5 L152.25,44.5 L144.4375,63.25 L191.3125,63.25 Z M171,50.75 L177.25,50.75 L177.25,57 L171,57 L171,50.75 Z M164.75,44.5 L158.5,44.5 L158.5,38.25 L164.75,38.25 L164.75,44.5 Z M164.75,25.75 L171,25.75 L171,32 L164.75,32 L164.75,25.75 Z M164.75,7 L158.5,7 L158.5,0.75 L164.75,0.75 L164.75,7 Z" id="" fill="#FFC398" sketch:type="MSShapeGroup"></path>
        <path d="M327.4375,67.8125 L359.6875,67.8125 L359.6875,75.875 L327.4375,75.875 L327.4375,67.8125 Z M297.203125,69.828125 L315.34375,51.6875 L297.203125,33.546875 L303.25,27.5 L327.4375,51.6875 L303.25,75.875 L297.203125,69.828125 Z M383.875,11.375 L383.875,92 C383.791015,94.2675895 382.993172,96.157219 381.481445,97.6689453 C379.969719,99.1806716 378.080089,99.9785152 375.8125,100.0625 L279.0625,100.0625 C276.794911,99.9785152 274.905281,99.1806716 273.393555,97.6689453 C271.881828,96.157219 271.083985,94.2675895 271,92 L271,11.375 C271.083985,9.10741054 271.881828,7.217781 273.393555,5.70605469 C274.905281,4.19432838 276.794911,3.39648479 279.0625,3.3125 L375.8125,3.3125 C378.080089,3.39648479 379.969719,4.19432838 381.481445,5.70605469 C382.993172,7.217781 383.791015,9.10741054 383.875,11.375 L383.875,11.375 Z M375.8125,11.375 L279.0625,11.375 L279.0625,92 L375.8125,92 L375.8125,11.375 Z" id="" fill="#FFC398" sketch:type="MSShapeGroup"></path>
        <path d="M51.828125,30.8896484 L61.671875,54.5249023 L38.6005859,100.71875 L24.0400391,100.71875 L0.96875,54.5249023 L10.8125,30.8896484 L10.8125,17.046875 L19.015625,17.046875 L19.015625,32.5302734 L9.9921875,54.2172852 L27.21875,88.6704102 L27.21875,62.0102539 C25.7490161,61.258297 24.5612838,60.1560131 23.6555176,58.7033691 C22.7497513,57.2507252 22.296875,55.6699304 22.296875,53.9609375 C22.296875,51.4658078 23.1769932,49.3381436 24.9372559,47.5778809 C26.6975186,45.8176182 28.8251828,44.9375 31.3203125,44.9375 C33.8154422,44.9375 35.9431064,45.8176182 37.7033691,47.5778809 C39.4636318,49.3381436 40.34375,51.4658078 40.34375,53.9609375 C40.34375,55.6699304 39.8908737,57.2507252 38.9851074,58.7033691 C38.0793412,60.1560131 36.8916089,61.258297 35.421875,62.0102539 L35.421875,88.7216797 L52.6484375,54.2172852 L43.625,32.5302734 L43.625,17.046875 L51.828125,17.046875 L51.828125,30.8896484 Z M58.390625,2.28125 L58.390625,10.484375 L4.25,10.484375 L4.25,2.28125 L58.390625,2.28125 Z" id="pen" fill="#FFC398" sketch:type="MSShapeGroup"></path>
    </g>
</svg>

<svg width="384" height="104" viewBox="0 0 384 104" xmlns="http://www.w3.org/2000/svg"><title>Untitled 2</title><g fill="#FFC398" fill-rule="evenodd"><path d="M210.844 91.96c.846 2.15.7 4.12-.44 5.91s-2.88 2.75-5.224 2.88h-74.61c-2.343-.13-4.085-1.09-5.224-2.88-1.14-1.79-1.286-3.76-.44-5.91L146 44.5v-25h-6.25v-6.25H196v6.25h-6.25v25l21.094 47.46zm-19.53-28.71L183.5 44.5v-25h-31.25v25l-7.813 18.75h46.875zM171 50.75h6.25V57H171v-6.25zm-6.25-6.25h-6.25v-6.25h6.25v6.25zm0-18.75H171V32h-6.25v-6.25zm0-18.75h-6.25V.75h6.25V7zM327.438 67.813h32.25v8.062h-32.25v-8.063zm-30.235 2.015l18.14-18.14-18.14-18.14 6.047-6.048 24.188 24.188-24.188 24.187-6.047-6.047zm86.672-58.453V92c-.084 2.268-.882 4.157-2.394 5.67-1.51 1.51-3.4 2.31-5.668 2.392h-96.75c-2.267-.083-4.157-.88-5.668-2.393-1.512-1.513-2.31-3.402-2.394-5.67V11.375c.084-2.268.882-4.157 2.394-5.67 1.51-1.51 3.4-2.31 5.668-2.393h96.75c2.268.084 4.158.882 5.67 2.394 1.51 1.512 2.31 3.4 2.393 5.67zm-8.063 0h-96.75V92h96.75V11.375zM51.828 30.89l9.844 23.635-23.07 46.194H24.04L.97 54.524 10.81 30.89V17.047h8.204V32.53L9.992 54.217 27.22 88.67V62.01c-1.47-.752-2.66-1.854-3.564-3.307-.906-1.452-1.36-3.033-1.36-4.742 0-2.494.88-4.622 2.64-6.382 1.762-1.76 3.89-2.64 6.384-2.64 2.495 0 4.623.88 6.383 2.64 1.76 1.76 2.64 3.888 2.64 6.383 0 1.71-.452 3.29-1.358 4.743-.906 1.453-2.093 2.555-3.563 3.307v26.712l17.226-34.505-9.023-21.687V17.047h8.203V30.89zM58.39 2.28v8.204H4.25V2.28h54.14z"/></g></svg>
